webapp/src/assets/icons/cloudproviders/aws/storage/ebs_volume.svg

<?xml version="1.0" encoding="UTF-8"?>
<svg width="48px" height="48px" viewBox="0 0 48 48" version="1.1" xmlns="http://www.w3.org/2000/svg" xmlns:xlink="http://www.w3.org/1999/xlink">
    <title>Icon-Resource/Storage/Res_Amazon-Elastic-Block-Store_Volume_48</title>
    <g id="Icon-Resource/Storage/Res_Amazon-Elastic-Block-Store_Volume_48" stroke="none" stroke-width="1" fill="none" fill-rule="evenodd">
        <path d="M13.4185,4 L33.8805,4 L38.2965,9.873 L9.0035,9.873 L13.4185,4 Z M7.0005,11.873 L40.2995,11.873 C40.6785,11.873 41.0245,11.659 41.1935,11.319 C41.3635,10.98 41.3265,10.575 41.0985,10.272 L35.1785,2.399 C34.9895,2.147 34.6935,2 34.3795,2 L12.9195,2 C12.6055,2 12.3095,2.147 12.1205,2.399 L6.2015,10.272 C5.9735,10.575 5.9365,10.98 6.1065,11.319 C6.2745,11.659 6.6215,11.873 7.0005,11.873 L7.0005,11.873 Z M8.0605,43.985 L39.2995,43.985 L39.2995,15.371 L8.0605,15.371 L8.0605,43.985 Z M40.2995,13.371 L7.0605,13.371 C6.5075,13.371 6.0605,13.818 6.0605,14.371 L6.0605,44.985 C6.0605,45.538 6.5075,45.985 7.0605,45.985 L40.2995,45.985 C40.8525,45.985 41.2995,45.538 41.2995,44.985 L41.2995,14.371 C41.2995,13.818 40.8525,13.371 40.2995,13.371 L40.2995,13.371 Z" id="AWS-Amazon-Elastic-Block-Store_Volume_Resource-Icon_light-bg" fill="#7AA116"></path>
    </g>
</svg>

<svg width="48" height="48" xmlns="http://www.w3.org/2000/svg"><path d="M13.418 4H33.88l4.416 5.873H9.005L13.419 4Zm-6.417 7.873h33.298a.998.998 0 0 0 .895-.554.997.997 0 0 0-.096-1.047l-5.92-7.873A.998.998 0 0 0 34.38 2H12.92a.998.998 0 0 0-.8.399l-5.918 7.873a.997.997 0 0 0-.096 1.047c.168.34.516.554.894.554Zm1.06 32.112H39.3V15.371H8.06v28.614ZM40.3 13.371H7.06a1 1 0 0 0-1 1v30.614a1 1 0 0 0 1 1H40.3a1 1 0 0 0 1-1V14.371a1 1 0 0 0-1-1Z" fill="#7AA116" fill-rule="evenodd"/></svg>
